icons/desktop/16/svg/send-tab-to-device-left-16.svg

<svg width="20" height="20" viewBox="0 0 20 20" fill="none" xmlns="http://www.w3.org/2000/svg">
<path fill-rule="evenodd" clip-rule="evenodd" d="M14.5 3C15.2664 3 15.9724 3.05908 16.6064 3.14844C17.9621 3.33997 19 4.48198 19 5.87695V14.1211C19 15.4065 18.1076 16.5085 16.8809 16.8008L16.6309 16.8486C15.8188 16.9643 15.097 17 14.5 17C13.7336 17 13.0276 16.9409 12.3936 16.8516C11.0379 16.66 10 15.518 10 14.123V5.87891C10 4.50781 11.0157 3.34492 12.3691 3.15137L12.9609 3.0791C13.5344 3.02024 14.0523 3 14.5 3ZM13.875 14.375C13.53 14.375 13.25 14.655 13.25 15C13.25 15.345 13.53 15.625 13.875 15.625H15.125C15.47 15.625 15.75 15.345 15.75 15C15.75 14.655 15.47 14.375 15.125 14.375H13.875ZM14.5 4.5C14.0973 4.5 13.631 4.51825 13.1143 4.57129L12.5811 4.63672C11.9627 4.72523 11.5 5.25814 11.5 5.87891V13H17.5V5.87695C17.5 5.2541 17.0376 4.72442 16.3975 4.63379C15.8255 4.55317 15.1895 4.5 14.5 4.5Z" fill="black"/>
<path d="M5.58398 7.91699C5.58402 7.54603 6.03293 7.36012 6.29492 7.62207L8.37695 9.7041C8.53994 9.8671 8.53995 10.131 8.37695 10.293L6.29395 12.376C6.03195 12.638 5.58302 12.453 5.58301 12.0811V10.75H2.75C2.33579 10.75 2 10.4142 2 10C2 9.58579 2.33579 9.25 2.75 9.25H5.58301V7.91602L5.58398 7.91699Z" fill="black"/>
</svg>

<!-- This Source Code Form is subject to the terms of the Mozilla Public
   - License, v. 2.0. If a copy of the MPL was not distributed with this
   - file, You can obtain one at http://mozilla.org/MPL/2.0/. -->
<svg xmlns="http://www.w3.org/2000/svg" width="20" height="20" fill="context-fill" fill-opacity="context-fill-opacity" viewBox="0 0 20 20">
    <path fill-rule="evenodd" d="M14.5 3c.766 0 1.472.06 2.106.148C17.962 3.34 19 4.482 19 5.877v8.244a2.76 2.76 0 0 1-2.12 2.68l-.25.048a15.1 15.1 0 0 1-4.236.003C11.038 16.66 10 15.518 10 14.123V5.879a2.76 2.76 0 0 1 2.37-2.728l.59-.072A15 15 0 0 1 14.5 3m-.625 11.375a.625.625 0 0 0 0 1.25h1.25a.625.625 0 0 0 0-1.25zM14.5 4.5c-.403 0-.869.018-1.386.071l-.533.066A1.26 1.26 0 0 0 11.5 5.879V13h6V5.877c0-.623-.462-1.153-1.102-1.243A14 14 0 0 0 14.5 4.5" clip-rule="evenodd" />
    <path d="M5.584 7.917c0-.371.449-.557.71-.295l2.083 2.082a.416.416 0 0 1 0 .589l-2.083 2.083a.416.416 0 0 1-.711-.295V10.75H2.75a.75.75 0 0 1 0-1.5h2.833z" />
</svg>
